X: 152
T:Lost Indian
M:4/4
L:1/8
F:http://blackrosetheband.googlepages.com/ABCTUNES.ABC May 2009
C:Tuning = GDGB
S:Gandydancer
N:Tuning = GDG
K:G
T:Part A
d2B2d2B2|eBdB (3ABA G2|B3d BAGA|BAGA BAGE|DEDC B,G,A,B,|G,4|
d2B2d2B2|eBdB (3ABA G2|B3d BAGA|BAGA BAGE|DEDC B,G,A,B,|
G,2 G,A, B,2 D2|EDED G^FGA|G2 G,A, B,2 D2|EDED G^FGA|G2 G2|
B3d BAGA|BAGA BAGE|DEDC B,G,A,B,|
G,2 G,A, B,2 D2|EDED G^FGA|G2 G,A, B,2 D2|EDED G^FGA|G2 G2|
B3d BAGA|BAGA BAGE|DEDC B,G,A,B,|G,4||
T: Part B
|:B2 G2 B2 G2|eBdB (3ABA G2|B2 G2 B2 G2|eBdB (3ABA G2|
B3c BAGA|BAGA BAGE|DEDC B,G,A,B,|
G,2 G,A, B,2 D2|EDED G^FGA|G2 G,A, B,2 D2|EDED G^FGA|G2 G2|
B3c BAGA|BAGA BAGE|DEDC B,G,A,B,|G,4:|

